src/img/Union4.svg

<svg width="50.000000" height="47.191406" viewBox="0 0 50 47.1914" fill="none" xmlns="http://www.w3.org/2000/svg" xmlns:xlink="http://www.w3.org/1999/xlink">
	<desc>
			Created with Pixso.
	</desc>
	<defs/>
	<path id="Union" d="M24.1626 5.32422C22.9819 4.11621 21.2007 3.56348 19.4526 4.03223L3.58252 8.28418C1.00488 8.97461 -0.524902 11.625 0.166016 14.2021L8.04492 43.6084C8.73584 46.1855 11.3853 47.7158 13.9634 47.0254L29.833 42.7725C30.4619 42.6045 31.0278 42.3193 31.5151 41.9473L36.0366 43.1592C38.6147 43.8496 41.2642 42.3193 41.9551 39.7422L49.834 10.3359C50.5249 7.75879 48.9951 5.1084 46.4175 4.41797L30.5474 0.166016C27.9697 -0.524414 25.3203 1.00488 24.6294 3.58301L24.1626 5.32422ZM25.2749 7.13379L26.1191 3.98242C26.5894 2.22656 28.3936 1.18555 30.1484 1.65625L46.0181 5.9082C47.7729 6.37793 48.8145 8.18262 48.3442 9.9375L40.4648 39.3428C39.9946 41.0977 38.1909 42.1387 36.436 41.6689L32.6821 40.6631C33.3657 39.5664 33.6104 38.2012 33.25 36.8545L25.3706 7.44922C25.3418 7.3418 25.3101 7.2373 25.2749 7.13379ZM29.2344 41.3359L13.564 45.5352C11.8091 46.0049 10.0054 44.9639 9.53516 43.209L1.65576 13.8037C1.18555 12.0488 2.22705 10.2441 3.98193 9.77441L19.8516 5.52246C21.3916 5.10938 22.9692 5.86035 23.6504 7.23633L16.75 32.9883C16.0596 35.5664 17.5894 38.2158 20.167 38.9062L29.2344 41.3359ZM31.0889 40.2363L20.5664 37.417C18.8115 36.9463 17.77 35.1426 18.2402 33.3877L24.4819 10.0928L31.7598 37.2539C32.0503 38.3379 31.7642 39.4404 31.0889 40.2363Z" fill="#FFFFFF" fill-opacity="1.000000" fill-rule="evenodd"/>
</svg>

<svg width="50" height="47.191" fill="none" xmlns="http://www.w3.org/2000/svg"><path d="M24.163 5.324a4.83 4.83 0 0 0-4.71-1.292L3.583 8.284a4.832 4.832 0 0 0-3.417 5.918l7.879 29.406a4.833 4.833 0 0 0 5.918 3.417l15.87-4.252a4.811 4.811 0 0 0 1.682-.826l4.522 1.212a4.833 4.833 0 0 0 5.918-3.417l7.879-29.406a4.832 4.832 0 0 0-3.417-5.918L30.547.166a4.832 4.832 0 0 0-5.918 3.417l-.466 1.741Zm1.112 1.81.844-3.152a3.289 3.289 0 0 1 4.03-2.326l15.87 4.252a3.29 3.29 0 0 1 2.325 4.03l-7.88 29.405a3.29 3.29 0 0 1-4.028 2.326l-3.754-1.006a4.82 4.82 0 0 0 .568-3.808L25.37 7.449a4.99 4.99 0 0 0-.095-.315Zm3.96 34.202-15.671 4.2a3.29 3.29 0 0 1-4.029-2.327l-7.88-29.405a3.29 3.29 0 0 1 2.327-4.03l15.87-4.252a3.29 3.29 0 0 1 3.798 1.714l-6.9 25.752a4.832 4.832 0 0 0 3.417 5.918l9.067 2.43Zm1.854-1.1-10.523-2.819a3.29 3.29 0 0 1-2.326-4.03l6.242-23.294 7.278 27.16a3.286 3.286 0 0 1-.671 2.983Z" fill="#FFF" fill-rule="evenodd"/></svg>
